public/cloud-icons/azure/networking/cdn-profile.svg

<?xml version="1.0" encoding="UTF-8" standalone="no"?>
<!-- Generated by Microsoft Visio, SVG Export CDN Profile.svg Page-1 -->

<svg
   xmlns:dc="http://purl.org/dc/elements/1.1/"
   xmlns:cc="http://creativecommons.org/ns#"
   xmlns:rdf="http://www.w3.org/1999/02/22-rdf-syntax-ns#"
   xmlns:svg="http://www.w3.org/2000/svg"
   xmlns="http://www.w3.org/2000/svg"
   xmlns:sodipodi="http://sodipodi.sourceforge.net/DTD/sodipodi-0.dtd"
   xmlns:inkscape="http://www.inkscape.org/namespaces/inkscape"
   width="0.79106456in"
   height="0.4724209in"
   viewBox="0 0 56.95643 34.014278"
   xml:space="preserve"
   class="st5"
   version="1.1"
   id="svg40"
   sodipodi:docname="CDN Profile.svg"
   style="font-size:12px;overflow:visible;color-interpolation-filters:sRGB;fill:none;fill-rule:evenodd;stroke-linecap:square;stroke-miterlimit:3"
   inkscape:version="0.92.5 (2060ec1f9f, 2020-04-08)"><metadata
   id="metadata44"><rdf:RDF><cc:Work
       rdf:about=""><dc:format>image/svg+xml</dc:format><dc:type
         rdf:resource="http://purl.org/dc/dcmitype/StillImage" /></cc:Work></rdf:RDF></metadata><sodipodi:namedview
   pagecolor="#ffffff"
   bordercolor="#666666"
   borderopacity="1"
   objecttolerance="10"
   gridtolerance="10"
   guidetolerance="10"
   inkscape:pageopacity="0"
   inkscape:pageshadow="2"
   inkscape:window-width="640"
   inkscape:window-height="480"
   id="namedview42"
   showgrid="false"
   inkscape:zoom="1.7347145"
   inkscape:cx="37.972965"
   inkscape:cy="22.665256"
   inkscape:window-x="0"
   inkscape:window-y="0"
   inkscape:window-maximized="0"
   inkscape:current-layer="svg40" />
	<style
   type="text/css"
   id="style2">
	<![CDATA[
		.st1 {fill:#b3b3b3;stroke:none;stroke-linecap:butt;stroke-width:34}
		.st2 {fill:#a3a3a3;stroke:none;stroke-linecap:butt;stroke-width:34}
		.st3 {fill:#7a7a7a;stroke:none;stroke-linecap:butt;stroke-width:34}
		.st4 {fill:url(#grad0-12);stroke:none;stroke-linecap:butt;stroke-width:34}
		.st5 {fill:none;fill-rule:evenodd;font-size:12px;overflow:visible;stroke-linecap:square;stroke-miterlimit:3}
	]]>
	</style>

	<defs
   id="Patterns_And_Gradients">
		<linearGradient
   id="grad0-12"
   x1="0"
   y1="78.537617"
   x2="39.275279"
   y2="78.537617"
   gradientTransform="scale(1.1546703,0.86604805)"
   gradientUnits="userSpaceOnUse">
			<stop
   offset="0.18"
   stop-color="#5ea0ef"
   stop-opacity="1"
   id="stop4" />
			<stop
   offset="1"
   stop-color="#0078d4"
   stop-opacity="1"
   id="stop6" />
		</linearGradient>
	</defs>
	<g
   id="g38"
   transform="translate(-34.001489,-34.00165)">
		<title
   id="title10">Page-1</title>
		<g
   id="group19320-1"
   transform="translate(34.2693,-34.0157)">
			<title
   id="title12">CDN Profile.19320</title>
			<g
   id="group19321-2">
				<title
   id="title14">g10</title>
				<g
   id="shape19322-3"
   transform="rotate(-90,1.9453,81.9149)">
					<title
   id="title16">rect2</title>
					<path
   d="m 0,100.34 a 1.63783,1.69107 -180 0 0 1.64,1.69 h 0.44 a 1.63783,1.69107 -180 0 0 1.64,-1.69 V 86.62 A 1.63783,1.69107 -180 0 0 2.08,84.93 H 1.64 A 1.63783,1.69107 -180 0 0 0,86.62 Z"
   class="st1"
   id="path18"
   inkscape:connector-curvature="0"
   style="fill:#b3b3b3;stroke:none;stroke-width:34;stroke-linecap:butt" />
				</g>
				<g
   id="shape19323-5"
   transform="rotate(-90,3.2172,88.4152)">
					<title
   id="title21">rect4</title>
					<path
   d="m 0,100.34 a 1.63783,1.69107 -180 0 0 1.64,1.69 h 0.44 a 1.63783,1.69107 -180 0 0 1.64,-1.69 V 86.62 A 1.63783,1.69107 -180 0 0 2.08,84.93 H 1.64 A 1.63783,1.69107 -180 0 0 0,86.62 Z"
   class="st2"
   id="path23"
   inkscape:connector-curvature="0"
   style="fill:#a3a3a3;stroke:none;stroke-width:34;stroke-linecap:butt" />
				</g>
				<g
   id="shape19324-7"
   transform="rotate(-90,9.71755,89.68715)">
					<title
   id="title26">rect6</title>
					<path
   d="m 0,100.34 a 1.63783,1.69107 -180 0 0 1.64,1.69 h 0.44 a 1.63783,1.69107 -180 0 0 1.64,-1.69 V 86.62 A 1.63783,1.69107 -180 0 0 2.08,84.93 H 1.64 A 1.63783,1.69107 -180 0 0 0,86.62 Z"
   class="st3"
   id="path28"
   inkscape:connector-curvature="0"
   style="fill:#7a7a7a;stroke:none;stroke-width:34;stroke-linecap:butt" />
				</g>
				<g
   id="shape19325-9"
   transform="translate(11.3386)">
					<title
   id="title31">path8</title>
					<path
   d="M 45.35,91.37 A 10.3307,10.6665 -180 0 0 36.5,81.03 13.0079,13.4307 -180 0 0 23.24,68.02 13.3228,13.7559 -180 0 0 10.65,77.12 12.252,12.6502 -180 0 0 0,89.48 12.5984,13.0079 -180 0 0 12.79,102.03 H 35.18 A 10.4567,10.7966 -180 0 0 45.35,91.37 Z"
   class="st4"
   id="path33"
   inkscape:connector-curvature="0"
   style="fill:url(#grad0-12);stroke:none;stroke-width:34;stroke-linecap:butt" />
				</g>
			</g>
		</g>
	</g>
</svg>

<svg xmlns="http://www.w3.org/2000/svg" xml:space="preserve" width="75.942" height="45.352" style="font-size:12px;overflow:visible;color-interpolation-filters:sRGB;fill-rule:evenodd;stroke-linecap:square;stroke-miterlimit:3" viewBox="0 0 56.956 34.014"><defs><linearGradient id="a" x1="0" x2="39.275" y1="78.538" y2="78.538" gradientTransform="scale(1.15467 .86605)" gradientUnits="userSpaceOnUse"><stop offset=".18" stop-color="#5ea0ef"/><stop offset="1" stop-color="#0078d4"/></linearGradient></defs><g transform="translate(-34.001 -34.002)"><title>Page-1</title><g transform="translate(34.27 -34.016)"><title>CDN Profile.19320</title><title>g10</title><g transform="rotate(-90 1.945 81.915)"><title>rect2</title><path d="M0 100.34a1.638 1.691-180 0 0 1.64 1.69h.44a1.638 1.691-180 0 0 1.64-1.69V86.62a1.638 1.691-180 0 0-1.64-1.69h-.44A1.638 1.691-180 0 0 0 86.62Z" style="fill:#b3b3b3;stroke:none;stroke-width:34;stroke-linecap:butt"/></g><g transform="rotate(-90 3.217 88.415)"><title>rect4</title><path d="M0 100.34a1.638 1.691-180 0 0 1.64 1.69h.44a1.638 1.691-180 0 0 1.64-1.69V86.62a1.638 1.691-180 0 0-1.64-1.69h-.44A1.638 1.691-180 0 0 0 86.62Z" style="fill:#a3a3a3;stroke:none;stroke-width:34;stroke-linecap:butt"/></g><g transform="rotate(-90 9.718 89.687)"><title>rect6</title><path d="M0 100.34a1.638 1.691-180 0 0 1.64 1.69h.44a1.638 1.691-180 0 0 1.64-1.69V86.62a1.638 1.691-180 0 0-1.64-1.69h-.44A1.638 1.691-180 0 0 0 86.62Z" style="fill:#7a7a7a;stroke:none;stroke-width:34;stroke-linecap:butt"/></g><g transform="translate(11.339)"><title>path8</title><path d="M45.35 91.37a10.33 10.667-180 0 0-8.85-10.34 13.008 13.43-180 0 0-13.26-13.01 13.323 13.756-180 0 0-12.59 9.1A12.252 12.65-180 0 0 0 89.48a12.598 13.008-180 0 0 12.79 12.55h22.39a10.457 10.797-180 0 0 10.17-10.66" style="fill:url(#a);stroke:none;stroke-width:34;stroke-linecap:butt"/></g></g></g></svg>
